X:1
T:Title
%%score { ( 1 3 4 ) | ( 2 5 ) }
L:1/8
M:4/4
K:Ab
V:1 treble nm="Grand Piano"
V:3 treble 
V:4 treble 
V:2 bass 
V:5 bass 
V:1
 z4 z2[Q:1/4=116] [CE]2 | [CE]2 [A,C]2 [CE]2 [CA]2 | [DA]3 [DG] [DG]2 [EA]2 | B2 E2 B2 _c2 | %4
[M:3/4] c6 |[M:1/4] c2 |[M:4/4] c2 d2 [=Ec]2 [EG]2 | B3 A A2 B2 | B2 c2 [=DB]2 F2 |[M:3/4] B6 | %10
[M:1/4] E2 |[M:4/4] [CE]2 [CF]2 [CG]2 [CA]2 | [DA]3 [DG] [DG]2 F2 | G2 A2 B2 [F_c]2 | %14
[M:3/4] [=Ec]6 |[M:1/4] [=Ec]2 |[M:4/4] [Fc]2 [_Ge]2 [Fd]2 [Ec]2 | [Ec]3 B B2 A2 | A2 B2 A2 G2 | %19
[M:3/4] [CA]6 |[M:1/4] c2 |[M:4/4] c2 [=Ec]2 [Fc]2 [Ec]2 | c4[K:bass][K:treble] z4 | %23
 F2 G2 A2 [FB]2 |[M:3/4] [=Ec]6 |[M:1/4] [Ge]2 |[M:3/4] [Ae]2 [Ge]2 e2 | e4 z2 | F2 [Fd]2 [Ec]2 | %29
 [CA]6 |] %30
V:2
 z4 z2 [A,,A,]2 | [A,,A,]2 [A,,E,]2 [A,,A,]2 [A,,E,]2 | [B,,E,]3 [B,,E,] [B,,E,]2 [C,A,]2 | %3
 [E,G,E]2 [E,G,]2 [E,G,E]2 [E,G,E]2 |[M:3/4] [A,E]6 |[M:1/4] [_G,B,E]2 | %6
[M:4/4] [F,=A,F]2 [F,F]2 [C,G,]2 [C,C]2 | [F,CF]3 [F,CF] [F,CF]2 [F,A,=D]2 | %8
 [E,G,E]2 [E,A,E]2 [B,,F,]2 [=D,B,]2 |[M:3/4] [E,G,E]6 |[M:1/4] [E,G,D]2 | %11
[M:4/4] [A,,A,]2 [A,,A,]2 [A,,E,]2 [A,,E,]2 | [B,,E,]3 [B,,E,] [B,,E,]2 [C,A,C]2 | %13
 [E,B,D]2 [F,A,C]2 [E,G,D]2 [D,F,]2 |[M:3/4] [C,G,]6 |[M:1/4] [C,B,]2 | %16
[M:4/4] [F,=A,]2 [C,A,]2 [B,,B,]2 [C,A,]2 | [D,F,]3 [D,F,D] [D,F,D]2 [=D,F,_C]2 | %18
 [E,A,C]2 [E,DF]2 [E,CE]2 [E,B,D]2 |[M:3/4] [A,,A,]6 |[M:1/4] [A,E]2 | %21
[M:4/4] [F,A,F]2 [C,G,]2 [F,A,]2 [C,G,]2 | [A,F]4 z4 | [F,A,C]2 [=E,G,C]2 [F,A,C]2 [D,F,B,]2 | %24
[M:3/4] [C,G,C]6 |[M:1/4] [B,D]2 |[M:3/4] [A,C]2 [E,B,]2[K:treble] [A,CA]2 | [CA]4[K:bass] z2 | %28
 [D,A,D]2 [B,,A,]2 [E,A,]2 | [A,,A,]6 |] %30
V:3
 x8 | x8 | x8 | x8 |[M:3/4] x6 |[M:1/4] x2 |[M:4/4] x8 | x8 | x8 |[M:3/4] x6 |[M:1/4] x2 | %11
[M:4/4] x8 | x8 | x8 |[M:3/4] x6 |[M:1/4] x2 |[M:4/4] x8 | x8 | x8 |[M:3/4] x6 |[M:1/4] x2 | %21
[M:4/4] x8 | z2[K:bass] z[K:treble] A F2 C2 | x8 |[M:3/4] x6 |[M:1/4] x2 |[M:3/4] x6 | z2 z c A2 | %28
 x6 | x6 |] %30
V:4
 x8 | x8 | x8 | x8 |[M:3/4] x6 |[M:1/4] x2 |[M:4/4] x8 | x8 | x8 |[M:3/4] x6 |[M:1/4] x2 | %11
[M:4/4] x8 | x8 | x8 |[M:3/4] x6 |[M:1/4] x2 |[M:4/4] x8 | x8 | x8 |[M:3/4] x6 |[M:1/4] x2 | %21
[M:4/4] x8 | z2[K:bass] C,2[K:treble] z4 | x8 |[M:3/4] x6 |[M:1/4] x2 |[M:3/4] x6 | z2 E,2 z2 | %28
 x6 | x6 |] %30
V:5
 x8 | x8 | x8 | x8 |[M:3/4] x6 |[M:1/4] x2 |[M:4/4] x8 | x8 | x8 |[M:3/4] x6 |[M:1/4] x2 | %11
[M:4/4] x8 | x8 | x8 |[M:3/4] x6 |[M:1/4] x2 |[M:4/4] x8 | x8 | x8 |[M:3/4] x6 |[M:1/4] x2 | %21
[M:4/4] x8 | F,2 z [F,C] [F,A,C]2 C,2 | x8 |[M:3/4] x6 |[M:1/4] x2 |[M:3/4] x4[K:treble] x2 | %27
 A,2 z[K:bass] [A,E] [A,C]2 | x6 | x6 |] %30

